src/assets/icons/lend.svg

<svg width="62" height="62" xmlns="http://www.w3.org/2000/svg"><g fill-rule="evenodd"><circle cx="31" cy="31" r="29"/><path d="M31.941 12.694c-6.011 0-10.884 4.873-10.884 10.884 0 2.555.882 4.901 2.355 6.758h7.547v-.604c-1.188-.224-2.29-.809-3.237-1.687l1.515-1.584c.688.757 1.739 1.326 2.841 1.326 1.033 0 1.757-.637 1.757-1.515 0-1.55-2.238-1.739-3.857-2.686-.947-.551-1.704-1.377-1.704-2.738 0-1.67 1.205-2.807 2.686-3.22v-1.98h2.066v1.859c.93.104 1.825.43 2.72 1.084l-1.205 1.722c-.481-.448-1.291-.792-2.083-.792-.878 0-1.859.379-1.859 1.309 0 1.946 5.562 1.343 5.562 5.407 0 1.825-1.395 3.167-3.134 3.512v.587h1.832s2.626.022 3.841 1.771a10.862 10.862 0 004.127-8.529c-.001-6.011-4.874-10.884-10.886-10.884z" fill="currentColor"/><path d="M31.03.625C14.299.625.687 14.236.687 30.967c0 16.731 13.612 30.344 30.343 30.344s30.343-13.612 30.343-30.343S47.761.625 31.03.625zm0 57.686c-7.296 0-13.929-2.879-18.837-7.553a687.031 687.031 0 004.501-4.533c.552-.562 1.105-.78 1.896-.77 3.357.046 6.715.02 10.073.02 3.488 0 6.979-.006 10.467.004 1.005.003 1.846-.286 2.555-1.045 1.012-1.082 2.086-2.104 3.133-3.151l6.913-6.912c.778-.778 1.197-1.662.742-2.759-.687-1.653-2.636-1.999-3.976-.676-2.555 2.52-5.066 5.083-7.635 7.588-.33.322-.893.559-1.354.567-2.6.054-5.201.026-7.801.026-1.316-.001-2.636.041-3.948-.037-.285-.017-.544-.463-.815-.712.264-.216.5-.501.801-.626.253-.105.584-.024.88-.025 2.139-.008 4.28.041 6.417-.042 1.45-.056 2.377-1.108 2.332-2.413-.046-1.312-1.039-2.246-2.504-2.25-6.089-.016-12.179-.028-18.269.027-.621.006-1.389.324-1.834.759a524.77 524.77 0 00-8.585 8.558 27.166 27.166 0 01-2.494-11.388c0-15.077 12.266-27.342 27.343-27.342s27.343 12.266 27.343 27.342c0 15.076-12.268 27.343-27.344 27.343z" fill="currentColor"/></g></svg>

<?xml version="1.0" encoding="UTF-8" standalone="no"?>
<svg width="62px" height="62px" viewBox="0 0 62 62" version="1.1" xmlns="http://www.w3.org/2000/svg" xmlns:xlink="http://www.w3.org/1999/xlink" xmlns:sketch="http://www.bohemiancoding.com/sketch/ns">
    <!-- Generator: Sketch 3.3.3 (12081) - http://www.bohemiancoding.com/sketch -->
    <title>2lend</title>
    <desc>Created with Sketch.</desc>
    <defs></defs>
    <g id="Page-1" stroke-width="1" fill-rule="evenodd" sketch:type="MSPage">
        <g id="2lend" sketch:type="MSLayerGroup">
            <circle id="Oval-1" sketch:type="MSShapeGroup" cx="31" cy="31" r="29"></circle>
            <path d="M31.941,12.694 C25.93,12.694 21.057,17.567 21.057,23.578 C21.057,26.133 21.939,28.479 23.412,30.336 L30.959,30.336 L30.959,29.732 C29.771,29.508 28.669,28.923 27.722,28.045 L29.237,26.461 C29.925,27.218 30.976,27.787 32.078,27.787 C33.111,27.787 33.835,27.15 33.835,26.272 C33.835,24.722 31.597,24.533 29.978,23.586 C29.031,23.035 28.274,22.209 28.274,20.848 C28.274,19.178 29.479,18.041 30.96,17.628 L30.96,15.648 L33.026,15.648 L33.026,17.507 C33.956,17.611 34.851,17.937 35.746,18.591 L34.541,20.313 C34.06,19.865 33.25,19.521 32.458,19.521 C31.58,19.521 30.599,19.9 30.599,20.83 C30.599,22.776 36.161,22.173 36.161,26.237 C36.161,28.062 34.766,29.404 33.027,29.749 L33.027,30.336 L34.859,30.336 C34.859,30.336 37.485,30.358 38.7,32.107 C41.213,30.113 42.827,27.035 42.827,23.578 C42.826,17.567 37.953,12.694 31.941,12.694 L31.941,12.694 L31.941,12.694 Z" id="Shape" fill="currentColor" sketch:type="MSShapeGroup"></path>
            <path d="M31.03,0.625 C14.299,0.625 0.687,14.236 0.687,30.967 C0.687,47.698 14.299,61.311 31.03,61.311 C47.761,61.311 61.373,47.699 61.373,30.968 C61.373,14.237 47.761,0.625 31.03,0.625 L31.03,0.625 L31.03,0.625 Z M31.03,58.311 C23.734,58.311 17.101,55.432 12.193,50.758 C13.699,49.253 15.202,47.744 16.694,46.225 C17.246,45.663 17.799,45.445 18.59,45.455 C21.947,45.501 25.305,45.475 28.663,45.475 C32.151,45.475 35.642,45.469 39.13,45.479 C40.135,45.482 40.976,45.193 41.685,44.434 C42.697,43.352 43.771,42.33 44.818,41.283 C47.123,38.979 49.426,36.675 51.731,34.371 C52.509,33.593 52.928,32.709 52.473,31.612 C51.786,29.959 49.837,29.613 48.497,30.936 C45.942,33.456 43.431,36.019 40.862,38.524 C40.532,38.846 39.969,39.083 39.508,39.091 C36.908,39.145 34.307,39.117 31.707,39.117 C30.391,39.116 29.071,39.158 27.759,39.08 C27.474,39.063 27.215,38.617 26.944,38.368 C27.208,38.152 27.444,37.867 27.745,37.742 C27.998,37.637 28.329,37.718 28.625,37.717 C30.764,37.709 32.905,37.758 35.042,37.675 C36.492,37.619 37.419,36.567 37.374,35.262 C37.328,33.95 36.335,33.016 34.87,33.012 C28.781,32.996 22.691,32.984 16.601,33.039 C15.98,33.045 15.212,33.363 14.767,33.798 C11.872,36.616 9.012,39.471 6.182,42.356 C4.585,38.886 3.688,35.031 3.688,30.968 C3.688,15.891 15.954,3.626 31.031,3.626 C46.108,3.626 58.374,15.892 58.374,30.968 C58.374,46.044 46.106,58.311 31.03,58.311 L31.03,58.311 L31.03,58.311 Z" id="Shape" fill="currentColor" sketch:type="MSShapeGroup"></path>
        </g>
    </g>
</svg>
